icons/_assets/aspect_ratio_fill.svg

<?xml version="1.0" encoding="UTF-8"?>
<svg width="100px" height="100px" viewBox="0 0 100 100" version="1.1" xmlns="http://www.w3.org/2000/svg" xmlns:xlink="http://www.w3.org/1999/xlink">
    <title>aspect-ratio / fill</title>
    <g id="aspect-ratio-/-fill" stroke="none" stroke-width="1" fill="none" fill-rule="evenodd">
        <path d="M0,99.9990667 L100,99.9990667 L100,-0.000933333333 L0,-0.000933333333 L0,99.9990667 Z M1.34217378,98.6569109 L98.6578262,98.6569109 L98.6578262,1.34122244 L1.34217378,1.34122244 L1.34217378,98.6569109 Z" id="outilne" fill="#FFFFFF" opacity="0"></path>
        <path d="M47.5671852,59.7775025 L47.6156933,40.4572385 L43.3793212,45.1350713 C42.9144521,45.6491922 42.2690252,45.9109265 41.6235983,45.9109265 C41.0630605,45.9109265 40.4998278,45.7146258 40.0497807,45.3126767 C39.0796191,44.4513572 39.0001198,42.974428 39.8705703,42.0129551 L48.1964427,32.8228765 C48.5454314,32.4382873 48.9954786,32.2019252 49.4697798,32.1031072 C49.52772,32.0910888 49.5870076,32.0857473 49.6462953,32.0763996 C49.7244472,32.067052 49.8012516,32.0550335 49.8794035,32.0536982 C49.917132,32.0510274 49.9521656,32.0416798 49.9898942,32.0416798 L49.9952839,32.0416798 C50.0747833,32.0416798 50.1502403,32.0577043 50.2297396,32.067052 C50.245909,32.0683873 50.2647733,32.0683873 50.2836375,32.0710581 C50.8711242,32.1458393 51.3885437,32.4289397 51.7590915,32.8495841 L59.8383813,39.9457883 C60.8125852,40.8017663 60.9028641,42.2786955 60.0391508,43.2441746 C59.176785,44.2096536 57.689204,44.3004594 56.7096103,43.443146 L52.3344512,39.5999252 L52.2859431,58.8480787 L56.4872816,54.2116427 C57.3563847,53.2501698 58.848008,53.1713824 59.8168221,54.0327019 C60.7869837,54.8953567 60.866483,56.3736213 59.9960325,57.3324235 L51.67016,66.5225021 C51.205291,67.036623 50.562559,67.2983573 49.9144371,67.2983573 C49.3592891,67.2983573 48.8014463,67.1047274 48.3527465,66.7107905 L40.0268741,59.4009256 C39.0526702,58.5449477 38.9610438,57.0680185 39.8261045,56.1025394 C40.6898178,55.1370604 42.1800937,55.04759 43.1542976,55.9022325 L47.5671852,59.7775025 Z M90.2839369,23.3416853 L90.2839369,67.561427 L9.71606306,76.6580291 L9.71606306,32.4382873 L90.2839369,23.3416853 Z M94.2117437,9.59262262 C93.7118411,9.15061216 93.0502448,8.94095765 92.375174,9.0144035 L7.09123711,18.6451572 C5.90009432,18.7786951 5,19.778894 5,20.9673813 L5,30.3524253 L5,79.2767074 L5,88.6630867 C5,89.3281054 5.28700612,89.9624105 5.78825625,90.4070917 C6.22213406,90.7903455 6.78132439,91 7.35803153,91 C7.44696301,91 7.53589448,90.9946585 7.62482595,90.9853108 L92.9087629,81.3545572 C94.0999057,81.2210192 95,80.2208203 95,79.032333 L95,69.6472891 L95,20.723007 L95,11.3366277 C95,10.6716089 94.7129939,10.0359685 94.2117437,9.59262262 L94.2117437,9.59262262 Z" id="icon" fill="#000000"></path>
    </g>
</svg>

<svg width="100" height="100" xmlns="http://www.w3.org/2000/svg"><g id="aspect-ratio-/-fill" stroke="none" stroke-width="1" fill="none" fill-rule="evenodd"><path d="M47.567 59.778l.049-19.32-4.237 4.677a2.362 2.362 0 0 1-1.755.776c-.56 0-1.124-.196-1.574-.598a2.32 2.32 0 0 1-.18-3.3l8.326-9.19a2.355 2.355 0 0 1 1.274-.72c.058-.012.117-.017.176-.027.078-.009.155-.021.233-.022.038-.003.073-.012.11-.012h.006c.08 0 .155.016.235.025.016.001.035.001.054.004a2.355 2.355 0 0 1 1.475.779l8.08 7.096a2.322 2.322 0 0 1 .2 3.298 2.373 2.373 0 0 1-3.33.2L52.335 39.6l-.048 19.248 4.201-4.636a2.372 2.372 0 0 1 3.33-.18 2.32 2.32 0 0 1 .179 3.3l-8.326 9.19a2.358 2.358 0 0 1-1.756.776 2.36 2.36 0 0 1-1.561-.587l-8.326-7.31a2.321 2.321 0 0 1-.2-3.298 2.374 2.374 0 0 1 3.327-.2l4.413 3.875zm42.717-36.436v44.22L9.716 76.657v-44.22l80.568-9.096zm3.928-13.75a2.373 2.373 0 0 0-1.837-.578L7.091 18.645A2.344 2.344 0 0 0 5 20.967v67.696c0 .665.287 1.3.788 1.744a2.372 2.372 0 0 0 1.837.578l85.284-9.63A2.344 2.344 0 0 0 95 79.032V11.337a2.33 2.33 0 0 0-.788-1.744z" id="icon" fill="#000"/></g></svg>
